src/images/icons/content-protected.svg

<svg width="78" height="60" viewBox="0 0 78 60" fill="none" xmlns="http://www.w3.org/2000/svg">
<path fill-rule="evenodd" clip-rule="evenodd" d="M3 0C4.65685 0 6 1.34315 6 3V57C6 58.6569 4.65685 60 3 60C1.34315 60 0 58.6569 0 57V3C0 1.34315 1.34315 0 3 0Z" fill="black"/>
<path fill-rule="evenodd" clip-rule="evenodd" d="M27 15C28.6569 15 30 16.3431 30 18V25.8679L37.4711 23.4349C39.0465 22.9218 40.7395 23.7831 41.2526 25.3585C41.7656 26.9339 40.9044 28.6269 39.329 29.14L31.8507 31.5753L36.4778 37.9499C37.4511 39.2908 37.1531 41.1668 35.8123 42.1401C34.4714 43.1133 32.5954 42.8154 31.6221 41.4745L27 35.1067L22.3778 41.4745C21.4045 42.8154 19.5285 43.1133 18.1877 42.1401C16.8468 41.1668 16.5489 39.2908 17.5222 37.9499L22.1493 31.5753L14.671 29.14C13.0956 28.6269 12.2344 26.9339 12.7474 25.3585C13.2605 23.7831 14.9535 22.9218 16.5289 23.4349L24 25.8679V18C24 16.3431 25.3431 15 27 15Z" fill="#38C545"/>
<path fill-rule="evenodd" clip-rule="evenodd" d="M63.0001 15C64.6569 15 66.0001 16.3431 66.0001 18V25.8679L73.471 23.4349C75.0464 22.9218 76.7395 23.7831 77.2525 25.3585C77.7656 26.9339 76.9043 28.6269 75.3289 29.14L67.8507 31.5753L72.4778 37.9499C73.4511 39.2908 73.1531 41.1668 71.8123 42.1401C70.4714 43.1133 68.5954 42.8154 67.6221 41.4745L62.9999 35.1067L58.3777 41.4745C57.4045 42.8154 55.5285 43.1133 54.1876 42.1401C52.8468 41.1668 52.5488 39.2908 53.5221 37.9499L58.1492 31.5753L50.671 29.14C49.0956 28.6269 48.2344 26.9339 48.7474 25.3585C49.2605 23.7831 50.9535 22.9218 52.5289 23.4349L60.0001 25.8679V18C60.0001 16.3431 61.3432 15 63.0001 15Z" fill="#38C545"/>
</svg>

<?xml version="1.0" encoding="UTF-8"?>
<svg id="Layer_1" xmlns="http://www.w3.org/2000/svg" version="1.1" viewBox="0 0 78 60">
  <!-- Generator: Adobe Illustrator 30.2.1, SVG Export Plug-In . SVG Version: 2.1.1 Build 1)  -->
  <defs>
    <style>
      .st0 {
        fill: #e3e3e3;
      }

      .st0, .st1 {
        fill-rule: evenodd;
      }

      .st1 {
        fill: #38c545;
      }
    </style>
  </defs>
  <path class="st0" d="M3,0c1.66,0,3,1.34,3,3v54c0,1.66-1.34,3-3,3s-3-1.34-3-3V3C0,1.34,1.34,0,3,0Z"/>
  <path class="st1" d="M27,15c1.66,0,3,1.34,3,3v7.87l7.47-2.43c1.58-.51,3.27.35,3.78,1.92.51,1.58-.35,3.27-1.92,3.78l-7.48,2.44,4.63,6.37c.97,1.34.68,3.22-.67,4.19-1.34.97-3.22.68-4.19-.67l-4.62-6.37-4.62,6.37c-.97,1.34-2.85,1.64-4.19.67-1.34-.97-1.64-2.85-.67-4.19l4.63-6.37-7.48-2.44c-1.58-.51-2.44-2.21-1.92-3.78.51-1.58,2.21-2.44,3.78-1.92l7.47,2.43v-7.87c0-1.66,1.34-3,3-3Z"/>
  <path class="st1" d="M63,15c1.66,0,3,1.34,3,3v7.87l7.47-2.43c1.58-.51,3.27.35,3.78,1.92.51,1.58-.35,3.27-1.92,3.78l-7.48,2.44,4.63,6.37c.97,1.34.68,3.22-.67,4.19-1.34.97-3.22.68-4.19-.67l-4.62-6.37-4.62,6.37c-.97,1.34-2.85,1.64-4.19.67-1.34-.97-1.64-2.85-.67-4.19l4.63-6.37-7.48-2.44c-1.58-.51-2.44-2.21-1.92-3.78.51-1.58,2.21-2.44,3.78-1.92l7.47,2.43v-7.87c0-1.66,1.34-3,3-3Z"/>
</svg>
